Newaita-dark/actions/32/application-exit.svg

<?xml version="1.0" encoding="UTF-8"?>
<svg xmlns="http://www.w3.org/2000/svg" xmlns:xlink="http://www.w3.org/1999/xlink" width="32pt" height="32pt" viewBox="0 0 32 32" version="1.1">
<defs>
<filter id="alpha" filterUnits="objectBoundingBox" x="0%" y="0%" width="100%" height="100%">
  <feColorMatrix type="matrix" in="SourceGraphic" values="0 0 0 0 1 0 0 0 0 1 0 0 0 0 1 0 0 0 1 0"/>
</filter>
<mask id="mask0">
  <g filter="url(#alpha)">
<rect x="0" y="0" width="32" height="32" style="fill:rgb(0%,0%,0%);fill-opacity:0.988235;stroke:none;"/>
  </g>
</mask>
<clipPath id="clip1">
  <rect x="0" y="0" width="32" height="32"/>
</clipPath>
<g id="surface5" clip-path="url(#clip1)">
<path style=" stroke:none;fill-rule:nonzero;fill:rgb(93.725491%,32.549021%,31.37255%);fill-opacity:1;" d="M 1.324219 8.1875 L 1.324219 28.035156 C 1.324219 29.5 2.503906 30.679688 3.96875 30.679688 L 27.785156 30.679688 C 29.25 30.679688 30.429688 29.5 30.429688 28.035156 L 30.429688 8.1875 Z M 3.308594 10.171875 L 28.445312 10.171875 L 28.445312 27.371094 C 28.445312 28.105469 27.855469 28.695312 27.121094 28.695312 L 4.628906 28.695312 C 3.898438 28.695312 3.308594 28.105469 3.308594 27.371094 Z M 3.308594 10.171875 "/>
</g>
<mask id="mask1">
  <g filter="url(#alpha)">
<rect x="0" y="0" width="32" height="32" style="fill:rgb(0%,0%,0%);fill-opacity:0.988235;stroke:none;"/>
  </g>
</mask>
<clipPath id="clip2">
  <rect x="0" y="0" width="32" height="32"/>
</clipPath>
<g id="surface8" clip-path="url(#clip2)">
<path style=" stroke:none;fill-rule:nonzero;fill:rgb(93.725491%,32.549021%,31.37255%);fill-opacity:1;" d="M 3.96875 1.574219 C 2.503906 1.574219 1.324219 2.753906 1.324219 4.21875 L 1.324219 8.1875 L 3.308594 8.1875 L 3.308594 4.878906 C 3.308594 4.148438 3.898438 3.558594 4.628906 3.558594 L 27.121094 3.558594 C 27.855469 3.558594 28.445312 4.148438 28.445312 4.878906 L 28.445312 8.1875 L 30.429688 8.1875 L 30.429688 4.21875 C 30.429688 2.753906 29.25 1.574219 27.785156 1.574219 Z M 3.96875 1.574219 "/>
</g>
</defs>
<g id="surface1">
<use xlink:href="#surface5" mask="url(#mask0)"/>
<use xlink:href="#surface8" mask="url(#mask1)"/>
<path style=" stroke:none;fill-rule:nonzero;fill:rgb(93.725491%,32.549021%,31.37255%);fill-opacity:1;" d="M 13.539062 15.691406 L 19.617188 21.773438 C 20.007812 22.160156 20.035156 22.761719 19.679688 23.117188 L 19.558594 23.238281 C 19.203125 23.589844 18.601562 23.5625 18.214844 23.175781 L 12.132812 17.09375 C 11.746094 16.707031 11.71875 16.105469 12.074219 15.753906 L 12.195312 15.632812 C 12.550781 15.277344 13.148438 15.304688 13.539062 15.691406 Z M 13.539062 15.691406 "/>
<path style=" stroke:none;fill-rule:nonzero;fill:rgb(93.725491%,32.549021%,31.37255%);fill-opacity:1;" d="M 12.132812 21.773438 L 18.214844 15.691406 C 18.601562 15.304688 19.203125 15.277344 19.558594 15.632812 L 19.679688 15.753906 C 20.035156 16.105469 20.007812 16.707031 19.617188 17.09375 L 13.539062 23.175781 C 13.148438 23.5625 12.550781 23.589844 12.195312 23.238281 L 12.074219 23.117188 C 11.71875 22.761719 11.746094 22.160156 12.132812 21.773438 Z M 12.132812 21.773438 "/>
</g>
</svg>

<svg xmlns="http://www.w3.org/2000/svg" xmlns:xlink="http://www.w3.org/1999/xlink" width="32pt" height="32pt" viewBox="0 0 32 32"><defs><filter id="a" filterUnits="objectBoundingBox" x="0%" y="0%" width="100%" height="100%"><feColorMatrix in="SourceGraphic" values="0 0 0 0 1 0 0 0 0 1 0 0 0 0 1 0 0 0 1 0"/></filter><mask id="e"><path fill-opacity=".988" d="M0 0h32v32H0z" filter="url(#a)"/></mask><clipPath id="b"><path d="M0 0h32v32H0z"/></clipPath><g id="d" clip-path="url(#b)"><path d="M1.324 8.188v19.847A2.639 2.639 0 0 0 3.97 30.68h23.816a2.639 2.639 0 0 0 2.645-2.645V8.187zm1.985 1.984h25.136v17.2a1.32 1.32 0 0 1-1.324 1.323H4.63c-.73 0-1.32-.59-1.32-1.324zm0 0" fill="#ef5350"/></g><mask id="g"><path fill-opacity=".988" d="M0 0h32v32H0z" filter="url(#a)"/></mask><clipPath id="c"><path d="M0 0h32v32H0z"/></clipPath><g id="f" clip-path="url(#c)"><path d="M3.969 1.574A2.639 2.639 0 0 0 1.324 4.22v3.968H3.31V4.88c0-.73.59-1.32 1.32-1.32H27.12c.734 0 1.324.59 1.324 1.32v3.309h1.985v-3.97a2.639 2.639 0 0 0-2.645-2.644zm0 0" fill="#ef5350"/></g></defs><use xlink:href="#d" mask="url(#e)"/><use xlink:href="#f" mask="url(#g)"/><path d="M13.54 15.691l6.077 6.082c.39.387.418.989.063 1.344l-.121.121c-.356.352-.957.325-1.344-.062l-6.082-6.082c-.387-.387-.414-.989-.059-1.34l.121-.121c.356-.356.953-.328 1.344.058zm0 0" fill="#ef5350"/><path d="M12.133 21.773l6.082-6.082c.387-.386.988-.414 1.344-.058l.12.12c.356.352.329.954-.062 1.34l-6.078 6.083c-.39.387-.988.414-1.344.062l-.12-.12c-.356-.356-.329-.958.058-1.345zm0 0" fill="#ef5350"/></svg>
